X: 41401
T: Twenty-One Highland
R: strathspey
M: 4/4
K: Adorian
|:C>EA,>B, C>A,B,>C|B,>DG,>D B,>DA,>G,|C>EA,>B, C>A,B,>C|1 D<B,G,>B, A,3B,:|2 D<B,G,>B, A,3 e||
c2 e>c a>ce>c|c2 e>c (3ege (3dBG|c2e>c a>ce>c|(3ege (3dcB A3 B|c2e>c a>ce>c|
c2 e>c (3ege (3dBG|A<aa>g (3efg (3fga|(3gag (3fed (3cBA (3GED||

